X:65
T:score155
L:1/8
Q:1/4=96
M:4/4
I:linebreak $
K:G
!mf! G2 A2 | (BA)GA BGcG | d4 d2 g2 |$ (cB)AB c2 c2 | (c2 B2) G2 A2 | (BA)GA BGcG |$ d4 d2 g2 | %7
 g2 (fe f2) (ed | d4) z4 |] %9
